X: 32213
T: Philip O'Beirne's Delight
R: reel
M: 4/4
K: Dmajor
FGAF DEFD|E>A, (3A,G,A, E>A, (3A,G,A,|FGAF DEFA|(3fga ec d2:|
fddc dcdf|edcd efge|1 fddc dfaf|ec (3ABc d2 ag:|
FD (3DDD FDAF|EA, (3A,A,A, EA,(3A,A,A,|FD (3DDD FDFA|(3Bcd ec d2:|
d2 eg fd (3ddd|ec (3ccc dcBA|1 d2 eg fd (3ddd|ec (3ccc d2:|

